remix/System/share-line.svg

<svg viewBox="0 0 24 24" fill="currentColor" xmlns="http://www.w3.org/2000/svg"><path d="M13.1202 17.0228L8.92129 14.7324C8.19135 15.5125 7.15261 16 6 16C3.79086 16 2 14.2091 2 12C2 9.79086 3.79086 8 6 8C7.15255 8 8.19125 8.48746 8.92118 9.26746L13.1202 6.97713C13.0417 6.66441 13 6.33707 13 6C13 3.79086 14.7909 2 17 2C19.2091 2 21 3.79086 21 6C21 8.20914 19.2091 10 17 10C15.8474 10 14.8087 9.51251 14.0787 8.73246L9.87977 11.0228C9.9583 11.3355 10 11.6629 10 12C10 12.3371 9.95831 12.6644 9.87981 12.9771L14.0788 15.2675C14.8087 14.4875 15.8474 14 17 14C19.2091 14 21 15.7909 21 18C21 20.2091 19.2091 22 17 22C14.7909 22 13 20.2091 13 18C13 17.6629 13.0417 17.3355 13.1202 17.0228ZM6 14C7.10457 14 8 13.1046 8 12C8 10.8954 7.10457 10 6 10C4.89543 10 4 10.8954 4 12C4 13.1046 4.89543 14 6 14ZM17 8C18.1046 8 19 7.10457 19 6C19 4.89543 18.1046 4 17 4C15.8954 4 15 4.89543 15 6C15 7.10457 15.8954 8 17 8ZM17 20C18.1046 20 19 19.1046 19 18C19 16.8954 18.1046 16 17 16C15.8954 16 15 16.8954 15 18C15 19.1046 15.8954 20 17 20Z"/></svg>

<svg viewBox="0 0 24 24" xmlns="http://www.w3.org/2000/svg"><path fill="none" d="M0 0h24v24H0Z"/><path d="M13.12 17.023l-4.199-2.29v0c-1.51 1.61-4.05 1.69-5.66.18 -1.62-1.51-1.7-4.05-.19-5.66 1.5-1.62 4.04-1.7 5.65-.19 .06.06.12.12.18.18l4.2-2.29v0c-.55-2.15.75-4.32 2.89-4.86 2.14-.55 4.31.75 4.85 2.89s-.76 4.31-2.9 4.85c-1.42.35-2.91-.09-3.9-1.15l-4.2 2.29v-.001c.16.64.16 1.31 0 1.95l4.199 2.29 -.001-.001c1.51-1.62 4.04-1.7 5.65-.19 1.61 1.51 1.69 4.04.18 5.65 -1.52 1.61-4.05 1.69-5.66.18 -1.07-1-1.5-2.49-1.15-3.9ZM6 13.993v0c1.1 0 2-.9 2-2 0-1.11-.9-2-2-2v0c-1.11 0-2 .89-2 2 0 1.1.89 2 2 2Zm11-6v0c1.1 0 2-.9 2-2 0-1.11-.9-2-2-2v0c-1.11 0-2 .89-2 2 0 1.1.89 2 2 2Zm0 12v0c1.1 0 2-.9 2-2 0-1.11-.9-2-2-2v0c-1.11 0-2 .89-2 2 0 1.1.89 2 2 2Z"/></svg>
